X:1
T:c 7
T:c 7
L:1/8
M:2/2
I:linebreak $
K:F
V:1 treble nm="ddle" snm="ddle"
V:1
 a2 |: g3 f e2 d2 | cdcB A2 GF | ECEG c2 cB | AFAc f2 a2 |$"C7" g3 f e2 d2 |"F" cdcB A2 GF | %7
 EFGA Bcde |1 f2 a2 f2 a2 :|2 f2 a2 f2 cB |:$ Accc dccc | Acfc acfc | Accc dccc | Acfc acfc |$ %14
 =Bccc dccc | =Bcec gcbd | Bcec gcbc |1 acgc f2 cB :|2 acgc f2 a2 |] %19
